assets/images/simple-illustrations/simple-illustration__filters.svg

<svg xmlns="http://www.w3.org/2000/svg" width="48" height="48" fill="none" viewBox="0 0 48 48"><path fill="#003C73" stroke="#002140" stroke-miterlimit="10" stroke-width=".857" d="M36.3255 39.8415H12.0675C10.4489 39.8415 8.94214 38.5084 8.94214 36.2453V11.743C8.94214 9.48293 10.4489 8.47058 12.0675 8.47058H36.3255C37.9441 8.47058 39.4508 9.48293 39.4508 11.743V36.2453C39.4508 38.5084 37.9411 39.8415 36.3255 39.8415Z"/><path fill="#5AB0FF" stroke="#002140" stroke-miterlimit="10" stroke-width=".857" d="M35.3335 38.5555H12.8647C10.8783 38.5555 10.3015 37.4784 10.3015 36.157V12.1756C10.3015 10.8543 10.8754 9.77719 12.8647 9.77719H35.3335C37.32 9.77719 38.0351 10.8543 38.0351 12.1756V36.157C38.0351 37.4784 37.1905 38.5555 35.3335 38.5555Z"/><path fill="#0676DE" d="M13.7273 26.7605V12.0786H15.8344V26.7605"/><path stroke="#002140" stroke-miterlimit="10" stroke-width=".857" d="M13.7273 26.7605V12.0786H15.8344V26.7605"/><path fill="#0676DE" d="M15.8344 28.1849V36.678H13.7273V28.1849"/><path stroke="#002140" stroke-miterlimit="10" stroke-width=".857" d="M15.8344 28.1849V36.678H13.7273V28.1849"/><path fill="#002140" stroke="#002140" stroke-miterlimit="10" stroke-width=".857" d="M13.7272 28.6057H12.4412V26.9871H13.7272H15.8343H17.1203V28.6057H15.8343H13.7272Z"/><path fill="#0676DE" d="M19.4216 16.0632V12.0786H21.5258V16.0632"/><path stroke="#002140" stroke-miterlimit="10" stroke-width=".857" d="M19.4216 16.0632V12.0786H21.5258V16.0632"/><path fill="#0676DE" d="M21.5258 16.9726V36.678H19.4216V16.9726"/><path stroke="#002140" stroke-miterlimit="10" stroke-width=".857" d="M21.5258 16.9726V36.678H19.4216V16.9726"/><path fill="#002140" stroke="#002140" stroke-miterlimit="10" stroke-width=".857" d="M19.4215 17.5052H18.1326V15.9984H19.4215H21.5257H22.8147V17.5052H21.5257H19.4215Z"/><path fill="#0164BF" stroke="#002140" stroke-miterlimit="10" stroke-width=".857" d="M28.4324 14.0091C28.4324 14.2858 28.3765 14.5506 28.2735 14.7919C28.1852 15.0009 28.0646 15.1863 27.9145 15.3511C27.732 15.5512 27.5113 15.716 27.2612 15.8278C27.011 15.9426 26.7315 16.0073 26.4342 16.0073C26.1547 16.0073 25.8898 15.9514 25.6514 15.8455C25.4278 15.7513 25.2247 15.613 25.0511 15.4452C24.8627 15.2657 24.7097 15.048 24.6038 14.8037C24.4978 14.5624 24.439 14.2946 24.439 14.0121C24.439 13.7501 24.489 13.4971 24.5832 13.2675C24.6862 13.0115 24.8421 12.779 25.0364 12.5877C25.2159 12.4141 25.4278 12.2699 25.6632 12.1757C25.9016 12.0757 26.1576 12.0197 26.4313 12.0197C26.705 12.0197 26.9463 12.0698 27.1758 12.1639C27.4142 12.2581 27.632 12.3994 27.8144 12.573C28.0028 12.7525 28.1529 12.9673 28.2588 13.2087C28.3677 13.4559 28.4295 13.7295 28.4295 14.015L28.4324 14.0091Z"/><path fill="#0164BF" stroke="#002140" stroke-miterlimit="10" stroke-width=".857" d="M28.4327 19.1413C28.4327 19.418 28.3768 19.6799 28.2738 19.9212C28.1884 20.1301 28.0648 20.3185 27.9147 20.4803C27.7323 20.6805 27.5115 20.8453 27.2614 20.9571C27.0113 21.0719 26.7317 21.1366 26.4374 21.1366C26.1431 21.1366 25.893 21.0807 25.6546 20.9747C25.4309 20.8806 25.2249 20.7423 25.0513 20.5745C24.863 20.3921 24.7129 20.1772 24.604 19.933C24.4981 19.6917 24.4421 19.4239 24.4421 19.1443C24.4421 18.8824 24.4922 18.6293 24.5863 18.3997C24.6893 18.1408 24.8453 17.9083 25.0425 17.7199C25.222 17.5434 25.4339 17.4021 25.6664 17.305C25.9047 17.2049 26.1608 17.149 26.4345 17.149C26.7081 17.149 26.9495 17.199 27.179 17.2932C27.4174 17.3874 27.6322 17.5286 27.8147 17.7023C28.003 17.8818 28.1531 18.0966 28.262 18.3379C28.3709 18.5851 28.4327 18.8588 28.4327 19.1443V19.1413Z"/><path fill="#0164BF" stroke="#002140" stroke-miterlimit="10" stroke-width=".857" d="M28.4324 24.2709C28.4324 24.5475 28.3765 24.8123 28.2735 25.0537C28.1852 25.2626 28.0646 25.448 27.9145 25.6128C27.732 25.81 27.5113 25.9748 27.2612 26.0866C27.011 26.2014 26.7315 26.2661 26.4342 26.2661C26.1547 26.2661 25.8898 26.2102 25.6514 26.1043C25.4278 26.0101 25.2218 25.8718 25.0481 25.704C24.8598 25.5216 24.7097 25.3038 24.6008 25.0595C24.4949 24.8182 24.439 24.5504 24.439 24.2709C24.439 24.006 24.489 23.7559 24.5832 23.5263C24.6862 23.2703 24.8421 23.0378 25.0364 22.8465C25.2159 22.6729 25.4278 22.5287 25.6603 22.4316C25.8986 22.3315 26.1576 22.2785 26.4313 22.2785C26.705 22.2785 26.9463 22.3286 27.1758 22.4227C27.4054 22.5169 27.632 22.6582 27.8144 22.8318C28.0028 23.0113 28.1529 23.2261 28.2588 23.4675C28.3677 23.7147 28.4295 23.9883 28.4295 24.2738L28.4324 24.2709Z"/><path fill="#0164BF" stroke="#002140" stroke-miterlimit="10" stroke-width=".857" d="M28.4324 29.4032C28.4324 29.6798 28.3765 29.9417 28.2735 30.183C28.1882 30.392 28.0646 30.5803 27.9145 30.7422C27.732 30.9423 27.5113 31.1042 27.2612 31.2189C27.011 31.3337 26.7315 31.3984 26.4342 31.3984C26.1547 31.3984 25.8898 31.3425 25.6514 31.2395C25.4278 31.1454 25.2218 31.007 25.0481 30.8364C24.8598 30.6539 24.7097 30.4391 24.6008 30.1948C24.4949 29.9535 24.439 29.6857 24.439 29.4061C24.439 29.1413 24.489 28.8911 24.5832 28.6586C24.6862 28.4026 24.8421 28.1701 25.0364 27.9788C25.2159 27.8052 25.4278 27.661 25.6632 27.5668C25.9016 27.4668 26.1576 27.4109 26.4313 27.4109C26.705 27.4109 26.9463 27.4609 27.1758 27.5551C27.4142 27.6492 27.632 27.7905 27.8144 27.9641C28.0028 28.1436 28.1529 28.3585 28.2588 28.5968C28.3677 28.844 28.4295 29.1177 28.4295 29.4061L28.4324 29.4032Z"/><path fill="#0164BF" stroke="#002140" stroke-miterlimit="10" stroke-width=".857" d="M28.4327 34.5326C28.4327 34.8092 28.3768 35.0711 28.2738 35.3125C28.1884 35.5214 28.0648 35.7098 27.9147 35.8716C27.7323 36.0717 27.5115 36.2365 27.2614 36.3484C27.0113 36.4631 26.7317 36.5279 26.4374 36.5279C26.1431 36.5279 25.893 36.472 25.6546 36.366C25.4309 36.2718 25.2249 36.1335 25.0513 35.9658C24.863 35.7833 24.7129 35.5685 24.604 35.3242C24.4981 35.0829 24.4421 34.8151 24.4421 34.5355C24.4421 34.2736 24.4922 34.0205 24.5863 33.791C24.6893 33.535 24.8453 33.3025 25.0395 33.1112C25.2191 32.9376 25.4309 32.7934 25.6634 32.6963C25.9018 32.5962 26.1608 32.5403 26.4345 32.5403C26.7081 32.5403 26.9495 32.5903 27.179 32.6845C27.4174 32.7787 27.6351 32.9199 27.8176 33.0935C28.0059 33.2731 28.156 33.4879 28.262 33.7292C28.3709 33.9764 28.4327 34.2501 28.4327 34.5355V34.5326Z"/><path fill="#0164BF" stroke="#002140" stroke-miterlimit="10" stroke-width=".857" d="M34.951 14.0091C34.951 14.2858 34.8951 14.5506 34.7921 14.7919C34.7038 15.0009 34.5831 15.1863 34.433 15.3511C34.2506 15.5512 34.0299 15.716 33.7797 15.8278C33.5296 15.9426 33.25 16.0073 32.9528 16.0073C32.6732 16.0073 32.4084 15.9514 32.17 15.8455C31.9463 15.7513 31.7433 15.613 31.5696 15.4452C31.3813 15.2657 31.2283 15.048 31.1223 14.8037C31.0164 14.5624 30.9575 14.2946 30.9575 14.0121C30.9575 13.7501 31.0075 13.4971 31.1017 13.2675C31.2047 13.0115 31.3607 12.779 31.5549 12.5877C31.7344 12.4141 31.9463 12.2699 32.1818 12.1757C32.4201 12.0757 32.6762 12.0197 32.9498 12.0197C33.2235 12.0197 33.4648 12.0698 33.6944 12.1639C33.9328 12.2581 34.1505 12.3994 34.333 12.573C34.5213 12.7525 34.6714 12.9673 34.7774 13.2087C34.8862 13.4559 34.948 13.7295 34.948 14.015L34.951 14.0091Z"/><path fill="#0164BF" stroke="#002140" stroke-miterlimit="10" stroke-width=".857" d="M34.951 19.1413C34.951 19.418 34.8951 19.6799 34.7921 19.9212C34.7067 20.1301 34.5831 20.3185 34.433 20.4803C34.2506 20.6805 34.0299 20.8453 33.7797 20.9571C33.5296 21.0719 33.25 21.1366 32.9557 21.1366C32.6614 21.1366 32.4113 21.0807 32.1729 20.9747C31.9493 20.8806 31.7433 20.7423 31.5696 20.5745C31.3813 20.3921 31.2312 20.1772 31.1223 19.933C31.0164 19.6917 30.9604 19.4239 30.9604 19.1443C30.9604 18.8824 31.0105 18.6293 31.1046 18.3997C31.2076 18.1408 31.3636 17.9083 31.5608 17.7199C31.7403 17.5434 31.9522 17.4021 32.1847 17.305C32.4231 17.2049 32.6791 17.149 32.9528 17.149C33.2265 17.149 33.4678 17.199 33.6973 17.2932C33.9357 17.3874 34.1505 17.5286 34.333 17.7023C34.5213 17.8818 34.6714 18.0966 34.7803 18.3379C34.8892 18.5851 34.951 18.8588 34.951 19.1443V19.1413Z"/><path fill="#0164BF" stroke="#002140" stroke-miterlimit="10" stroke-width=".857" d="M34.951 24.2709C34.951 24.5475 34.8951 24.8123 34.7921 25.0537C34.7038 25.2626 34.5831 25.448 34.433 25.6128C34.2506 25.81 34.0299 25.9748 33.7797 26.0866C33.5296 26.2014 33.25 26.2661 32.9528 26.2661C32.6732 26.2661 32.4084 26.2102 32.17 26.1043C31.9463 26.0101 31.7403 25.8718 31.5667 25.704C31.3783 25.5216 31.2283 25.3038 31.1194 25.0595C31.0134 24.8182 30.9575 24.5504 30.9575 24.2709C30.9575 24.006 31.0075 23.7559 31.1017 23.5263C31.2047 23.2703 31.3607 23.0378 31.5549 22.8465C31.7344 22.6729 31.9463 22.5287 32.1788 22.4316C32.4172 22.3315 32.6762 22.2785 32.9498 22.2785C33.2235 22.2785 33.4648 22.3286 33.6944 22.4227C33.9239 22.5169 34.1505 22.6582 34.333 22.8318C34.5213 23.0113 34.6714 23.2261 34.7774 23.4675C34.8862 23.7147 34.948 23.9883 34.948 24.2738L34.951 24.2709Z"/><path fill="#0164BF" stroke="#002140" stroke-miterlimit="10" stroke-width=".857" d="M34.951 29.4032C34.951 29.6798 34.8951 29.9417 34.7921 30.183C34.7067 30.392 34.5831 30.5803 34.433 30.7422C34.2506 30.9423 34.0299 31.1042 33.7797 31.2189C33.5296 31.3337 33.25 31.3984 32.9528 31.3984C32.6732 31.3984 32.4084 31.3425 32.17 31.2395C31.9463 31.1454 31.7403 31.007 31.5667 30.8364C31.3783 30.6539 31.2283 30.4391 31.1194 30.1948C31.0134 29.9535 30.9575 29.6857 30.9575 29.4061C30.9575 29.1413 31.0075 28.8911 31.1017 28.6586C31.2047 28.4026 31.3607 28.1701 31.5549 27.9788C31.7344 27.8052 31.9463 27.661 32.1818 27.5668C32.4201 27.4668 32.6762 27.4109 32.9498 27.4109C33.2235 27.4109 33.4648 27.4609 33.6944 27.5551C33.9328 27.6492 34.1505 27.7905 34.333 27.9641C34.5213 28.1436 34.6714 28.3585 34.7774 28.5968C34.8862 28.844 34.948 29.1177 34.948 29.4061L34.951 29.4032Z"/><path fill="#0164BF" stroke="#002140" stroke-miterlimit="10" stroke-width=".857" d="M34.951 34.5326C34.951 34.8092 34.8951 35.0711 34.7921 35.3125C34.7067 35.5214 34.5831 35.7098 34.433 35.8716C34.2506 36.0717 34.0299 36.2365 33.7797 36.3484C33.5296 36.4631 33.25 36.5279 32.9557 36.5279C32.6614 36.5279 32.4113 36.472 32.1729 36.366C31.9493 36.2718 31.7433 36.1335 31.5696 35.9658C31.3813 35.7833 31.2312 35.5685 31.1223 35.3242C31.0164 35.0829 30.9604 34.8151 30.9604 34.5355C30.9604 34.2736 31.0105 34.0205 31.1046 33.791C31.2076 33.535 31.3636 33.3025 31.5579 33.1112C31.7374 32.9376 31.9493 32.7934 32.1817 32.6963C32.4201 32.5962 32.6791 32.5403 32.9528 32.5403C33.2265 32.5403 33.4678 32.5903 33.6973 32.6845C33.9357 32.7787 34.1535 32.9199 34.3359 33.0935C34.5243 33.2731 34.6743 33.4879 34.7803 33.7292C34.8892 33.9764 34.951 34.2501 34.951 34.5355V34.5326Z"/></svg>

<svg xmlns="http://www.w3.org/2000/svg" width="48" height="48" fill="none" viewBox="0 0 48 48"><path fill="#003c73" stroke="#002140" stroke-miterlimit="10" stroke-width=".857" d="M36.326 39.842H12.067c-1.62 0-3.126-1.334-3.126-3.597V11.743c0-2.26 1.507-3.272 3.126-3.272h24.257c1.62 0 3.126 1.012 3.126 3.272v24.502c0 2.263-1.51 3.597-3.126 3.597Z"/><path fill="#5ab0ff" stroke="#002140" stroke-miterlimit="10" stroke-width=".857" d="M35.334 38.556h-22.47c-1.986 0-2.562-1.078-2.562-2.399V12.176c0-1.322.573-2.399 2.563-2.399h22.469c1.986 0 2.701 1.077 2.701 2.399v23.981c0 1.321-.844 2.399-2.701 2.399Z"/><path fill="#0676de" d="M13.727 26.76V12.08h2.107v14.68"/><path stroke="#002140" stroke-miterlimit="10" stroke-width=".857" d="M13.727 26.76V12.08h2.107v14.68"/><path fill="#0676de" d="M15.834 28.185v8.493h-2.107v-8.493"/><path stroke="#002140" stroke-miterlimit="10" stroke-width=".857" d="M15.834 28.185v8.493h-2.107v-8.493"/><path fill="#002140" stroke="#002140" stroke-miterlimit="10" stroke-width=".857" d="M13.727 28.606h-1.286v-1.619h4.679v1.619z"/><path fill="#0676de" d="M19.422 16.063V12.08h2.104v3.984"/><path stroke="#002140" stroke-miterlimit="10" stroke-width=".857" d="M19.422 16.063V12.08h2.104v3.984"/><path fill="#0676de" d="M21.526 16.973v19.705h-2.104V16.973"/><path stroke="#002140" stroke-miterlimit="10" stroke-width=".857" d="M21.526 16.973v19.705h-2.104V16.973"/><path fill="#002140" stroke="#002140" stroke-miterlimit="10" stroke-width=".857" d="M19.422 17.505h-1.29v-1.507h4.683v1.507z"/><path fill="#0164bf" stroke="#002140" stroke-miterlimit="10" stroke-width=".857" d="M28.432 14.01a1.99 1.99 0 0 1-1.17 1.818 1.98 1.98 0 0 1-1.61.018 2 2 0 0 1-.6-.4 2 2 0 0 1-.448-.642 2 2 0 0 1-.165-.792 2 2 0 0 1 .597-1.424 2 2 0 0 1 .627-.412 1.97 1.97 0 0 1 1.513-.012 1.97 1.97 0 0 1 1.083 1.045 2 2 0 0 1 .17.806zm.001 5.131a1.98 1.98 0 0 1-.518 1.34 2 2 0 0 1-.654.476c-.25.115-.53.18-.824.18a1.9 1.9 0 0 1-.782-.162 2 2 0 0 1-.604-.4 1.96 1.96 0 0 1-.61-1.43 1.98 1.98 0 0 1 .602-1.425c.179-.177.39-.318.623-.415a1.97 1.97 0 0 1 1.513-.012c.238.094.453.236.636.41a2 2 0 0 1 .618 1.442zm-.001 5.129a1.99 1.99 0 0 1-1.998 1.996c-.28 0-.544-.056-.783-.162a2 2 0 0 1-.603-.4 2.1 2.1 0 0 1-.447-.645 2 2 0 0 1-.162-.788q.002-.399.144-.745a2 2 0 0 1 .453-.68 1.98 1.98 0 0 1 1.395-.568c.274 0 .515.05.745.145s.456.235.638.409q.285.272.445.636a2 2 0 0 1 .17.806zm0 5.133q-.002.417-.159.78a2.02 2.02 0 0 1-1.012 1.036c-.25.115-.53.18-.827.18a1.97 1.97 0 0 1-1.386-.563 1.96 1.96 0 0 1-.61-1.43q.003-.398.145-.747a2 2 0 0 1 .453-.68 2 2 0 0 1 .627-.412 1.97 1.97 0 0 1 1.513-.012 2 2 0 0 1 1.083 1.042c.109.247.17.52.17.81zm.001 5.13a1.98 1.98 0 0 1-.518 1.339c-.183.2-.403.364-.654.476-.25.115-.53.18-.824.18a1.9 1.9 0 0 1-.782-.162 2 2 0 0 1-.604-.4 1.96 1.96 0 0 1-.61-1.43 2 2 0 0 1 .597-1.424 1.98 1.98 0 0 1 2.14-.427 1.97 1.97 0 0 1 1.083 1.045 2 2 0 0 1 .172.805zm6.518-20.523a1.99 1.99 0 0 1-1.171 1.818 1.98 1.98 0 0 1-1.61.018 2 2 0 0 1-.6-.4 1.97 1.97 0 0 1-.613-1.434 2 2 0 0 1 .597-1.424 2 2 0 0 1 .628-.412 1.97 1.97 0 0 1 1.512-.012 1.97 1.97 0 0 1 1.083 1.045 2 2 0 0 1 .171.806zm0 5.131a1.98 1.98 0 0 1-.518 1.34c-.182.2-.403.364-.653.476-.25.115-.53.18-.824.18a1.9 1.9 0 0 1-.783-.162 2 2 0 0 1-.603-.4 1.96 1.96 0 0 1-.61-1.43c0-.263.05-.516.145-.745.103-.26.259-.492.456-.68.18-.177.391-.318.624-.415a1.97 1.97 0 0 1 1.512-.012c.239.094.453.236.636.41a2 2 0 0 1 .618 1.442zm0 5.129a1.99 1.99 0 0 1-1.998 1.996c-.28 0-.545-.056-.783-.162a2 2 0 0 1-.603-.4 2.1 2.1 0 0 1-.448-.645 2 2 0 0 1-.162-.788q.001-.399.145-.745c.103-.256.259-.488.453-.68a1.98 1.98 0 0 1 1.395-.568c.273 0 .515.05.744.145a1.97 1.97 0 0 1 1.083 1.045 2 2 0 0 1 .171.806zm0 5.133a1.98 1.98 0 0 1-.518 1.34c-.182.2-.403.361-.653.476s-.53.18-.827.18a1.97 1.97 0 0 1-1.386-.563 1.96 1.96 0 0 1-.61-1.43q.001-.398.145-.747a1.95 1.95 0 0 1 1.08-1.092 1.97 1.97 0 0 1 1.512-.012 2 2 0 0 1 1.083 1.042c.11.247.171.52.171.81zm0 5.13a1.98 1.98 0 0 1-.518 1.339c-.182.2-.403.364-.653.476-.25.115-.53.18-.824.18a1.9 1.9 0 0 1-.783-.162 2 2 0 0 1-.603-.4 1.96 1.96 0 0 1-.61-1.43 2 2 0 0 1 .598-1.424 1.98 1.98 0 0 1 2.14-.427 1.97 1.97 0 0 1 1.083 1.045 2 2 0 0 1 .17.805z"/></svg>
